assets/fc/fc-key.svg

<svg xmlns="http://www.w3.org/2000/svg" width="100%" height="100%" viewBox="0 0 48 48"><g fill="#FFA000"><path d="M30 41l-4 4h-4l-4-4V21h12v8l-2 2 2 2v2l-2 2 2 2z"/><path d="M38 7.8c-.5-1.8-2-3.1-3.7-3.6C31.9 3.7 28.2 3 24 3s-7.9.7-10.3 1.2C12 4.7 10.5 6 10 7.8c-.5 1.7-1 4.1-1 6.7 0 2.6.5 5 1 6.7.5 1.8 1.9 3.1 3.7 3.5 2.4.6 6.1 1.3 10.3 1.3s7.9-.7 10.3-1.2c1.8-.4 3.2-1.8 3.7-3.5s1-4.1 1-6.7c0-2.7-.5-5.1-1-6.8zM29 13H19c-1.1 0-2-.9-2-2V9c0-.6 3.1-1 7-1s7 .4 7 1v2c0 1.1-.9 2-2 2z"/></g><path fill="#D68600" d="M23 26h2v19h-2z"/></svg>

<svg xmlns="http://www.w3.org/2000/svg" width="100%" height="100%" viewBox="0 0 48 48"><g fill="#FFA000"><path d="M30 41L26 45 22 45 18 41 18 21 30 21 30 29 28 31 30 33 30 35 28 37 30 39z"/><path d="M38,7.8C37.5,6,36,4.7,34.3,4.2C31.9,3.7,28.2,3,24,3s-7.9,0.7-10.3,1.2C12,4.7,10.5,6,10,7.8 c-0.5,1.7-1,4.1-1,6.7c0,2.6,0.5,5,1,6.7c0.5,1.8,1.9,3.1,3.7,3.5C16.1,25.3,19.8,26,24,26s7.9-0.7,10.3-1.2 c1.8-0.4,3.2-1.8,3.7-3.5c0.5-1.7,1-4.1,1-6.7C39,11.9,38.5,9.5,38,7.8z M29,13H19c-1.1,0-2-0.9-2-2V9c0-0.6,3.1-1,7-1s7,0.4,7,1v2 C31,12.1,30.1,13,29,13z"/></g><path fill="#D68600" d="M23 26H25V45H23z"/></svg>
